X:391
%%etbk:tnset id:112,pos:2,rep:3x,ant:
%%etbk:tnset id:258,pos:6,rep:3x+1A-Stop,ant:
%%etbk:wsite http://www.thesession.org/tunes/display/239
%%etbk:color #ffffcc
%%etbk:pldat 2016-06-23T18:27,2016-06-22T16:20,2016-06-21T16:24,2016-05-05T14:46,2016-05-03T17:09,2016-03-09T16:30,2016-03-05T13:54,2016-02-27T15:05,2015-10-08T17:57,2015-06-26T17:47,2015-06-18T19:03,2015-03-13T18:05,2015-03-09T18:09,2014-10-29T17:15,2014-10-28T15:23,2014-10-23T18:31,2014-08-21T19:21,2014-08-18T19:20,2014-06-25T16:08,2014-06-22T16:43,2014-06-11T16:52,2014-02-27T18:35,2014-02-25T19:47,2013-10-30T16:58,2013-10-26T16:58,2013-10-16T16:37
T: Ballydesmond 3, The
Z: Piano Box Version by Martin Fleischmann
H: Created 2013-02-19 /  Last Modified 2016-02-27
M: 2/4
L: 1/8
R: polka
K: Ador
A/B/ |: "am"!3!c2 B2 | !1!A!3!B/A/ "G"!1!G>A | !3!B!4!d !2!e!1!d | !4!g2 gd |
"am"!2!e!5!a !4!g!2!e | "G"!1!d!3!B !1!G!1!A/B/ | !3!c!5!e !4!d!2!B |1 "am"!1!A2 A>B:|2 "am"!1!A2 A2 |
|: "am"!2!e!5!a ag/e/ | "G"!1!d!4!g gd | "am"!2!e!4!a a!5!b | !3!"em"(3gag g2 |
"am"!2!e!5!a !4!g!2!e | "G"!1!d!3!B !1!G!1!A/B/ | !3!c!5!e !4!d!2!B |1 "am"A2 !1!A2:|2 "am"!1!A2 A>B||


